X:6
T:Django's Blues
C:Django Reinhardt
N:From the 'Django Reinhardt Anthology' Arranged for Mandolin by Mike Stangeland 
L:1/8
Q:1/4=132
M:4/4
K:Bb
z8 | (3A,_D=E (3GB_d (3=egb (3ag_g | z8 | "Gm"G,4 zB, DG | A4 G2 DG, | z4 zB, DG | 
A4 G2 DG, | "Cm6"z2 (3a_ag (3ecA (3GEC | (3A,G,A, (3CEG (3Ace (3g_a=a | "Gm"b4 (3_ga=g (3=edB | 
G2 =ee dB GD | "D7"c2 (3BcB A_G DD | c2 (3BcB GG zG | "Gm"zG z2 "D7"z4 | "Gm"z4 "D7"zG B_d | 
"Gm"cG B_d cG Bd | c3_d/c/ BG z2 | [=e4e4] [e4e4] | [=e8e8] | "Cm6"Gd (3cAG (3ECA, (3AGE | 
C3/2C/ C6 | (3"Gm"d'c'b (3g_Gd (3BAG (3ABd | a2 dg z4 | "D7"a2 eg z2 ce | z2 Gd z_G zG | 
"Gm"GB dg "D7"ec A_G | "Gm"GG G2 "D7"FA ce | "Gm"da z2 z4 | a2 z2 ag d2 | _a2 z2 (3g=ag d2 | 
z3B dg bd' | (3"Cm6"e'=bd' (3c'ag (3ecA (3age | (3cAc (3efe (3fef (3efe | "Gm"=e4 (3dB_A (3GB,A, | 
G,G,/(3A, (3B,DG (3Bcd (3e_de | "D7"d4 zc e_g | zb z2 ag (3_ga=g | (3"Gm"=edB (3GEd "D7"c2 BG | 
"Gm"zg z4 (3gab | "Gm"c'2 z2 c'g d=e | z=e z3g ab | c'/z/c'/z/ c'/z/c' z2 bg | 
dd dd dg (3bd'f' | (3"Cm6"e'c'g ee e4 | (3CEG (3dcG (3ECD (3EGc | (3"Gm"egd (3BGD DD D2 | 
z4 _d/=d/e/d/ c/B/A/G/ | "D7"_G/e/e/d/ d/c/B/A/ G/G/G/G/ e/d/c/B/ | A/G/F/E/ D/C/B,/A,/ G,/A,/A,/C/ E/_G/A/c/ | 
"Gm"e/_g/=g3/2d/f/=e/ "D7"_e/c/B/A/ G/_G/G/A/ | "Gm"G8 | z8 | 


